static/img/services/terraform.svg

<svg width="133" height="32" viewBox="0 0 133 32" fill="none" xmlns="http://www.w3.org/2000/svg">
<g clip-path="url(#clip0)">
<path d="M41.1504 4.18155V2.46318H39.5544V4.18155H38.7777V0.0585204H39.581V1.78753H41.177V0.0585204H41.9804V4.18155H41.1504ZM44.8745 4.18155H44.2361L44.1775 3.97938C43.9073 4.1531 43.5943 4.24883 43.2731 4.25603C42.7092 4.25603 42.4645 3.88362 42.4645 3.3729C42.4645 2.76642 42.7358 2.53766 43.3689 2.53766H44.1137V2.20781C44.1137 1.87797 44.0179 1.76093 43.5232 1.76093C43.2354 1.76363 42.9486 1.79391 42.6667 1.85137L42.5603 1.28745C42.9075 1.19601 43.2651 1.14953 43.6243 1.14913C44.5978 1.14913 44.8851 1.47897 44.8851 2.21313L44.8745 4.18155ZM44.1137 3.05902H43.5391C43.2838 3.05902 43.2146 3.12818 43.2146 3.35162C43.2146 3.57506 43.2838 3.64954 43.5285 3.64954C43.7332 3.64639 43.9341 3.59344 44.1137 3.49526V3.05902ZM46.513 4.25603C46.1521 4.25027 45.7938 4.19295 45.449 4.08578L45.5554 3.51654C45.8554 3.59866 46.1648 3.64158 46.4758 3.64422C46.8216 3.64422 46.8695 3.56974 46.8695 3.3463C46.8695 3.12286 46.8322 3.06966 46.3375 2.95794C45.582 2.78238 45.4916 2.59618 45.4916 2.02161C45.4916 1.44705 45.7523 1.14381 46.6407 1.14381C46.954 1.1449 47.2663 1.18058 47.5717 1.25021L47.4972 1.84073C47.2161 1.79097 46.9315 1.76251 46.646 1.75561C46.3109 1.75561 46.2524 1.83009 46.2524 2.01097C46.2524 2.19185 46.2524 2.26633 46.6886 2.37273C47.5558 2.59086 47.6356 2.70258 47.6356 3.31438C47.6356 3.92618 47.4494 4.25603 46.513 4.25603ZM50.0668 4.19751V2.12801C50.0668 1.96841 49.9977 1.88861 49.8168 1.88861C49.5343 1.91558 49.2597 1.99687 49.0081 2.12801V4.18155H48.2314V0L49.0081 0.117041V1.43109C49.3617 1.25737 49.7477 1.15951 50.1413 1.14381C50.6733 1.14381 50.8435 1.48961 50.8435 2.02161V4.18155L50.0668 4.19751ZM51.4926 0.803325V0.0585204H52.2693V0.787365L51.4926 0.803325ZM51.4926 4.19751V1.20765H52.2693V4.18155L51.4926 4.19751ZM52.8864 1.25021C52.8864 0.505403 53.3386 0.0691604 54.392 0.0691604C54.7789 0.0687484 55.1646 0.113383 55.5411 0.202161L55.4507 0.867165C55.1083 0.803953 54.7614 0.768371 54.4133 0.760765C53.8813 0.760765 53.6844 0.941646 53.6844 1.37789V2.92602C53.6844 3.35694 53.86 3.54314 54.4133 3.54314C54.7614 3.53554 55.1083 3.49995 55.4507 3.43674L55.5411 4.10175C55.1646 4.19052 54.7789 4.23516 54.392 4.23475C53.328 4.23475 52.8864 3.80382 52.8864 3.0537V1.25021ZM57.2595 4.25603C56.1955 4.25603 55.9135 3.6921 55.9135 3.08562V2.31953C55.9135 1.70773 56.2008 1.14913 57.2595 1.14913C58.3182 1.14913 58.6055 1.71305 58.6055 2.31953V3.06966C58.6108 3.68146 58.3235 4.25603 57.2595 4.25603ZM57.2595 1.79285C56.8445 1.79285 56.6849 1.96841 56.6849 2.32485V3.12286C56.6849 3.45802 56.8445 3.65486 57.2595 3.65486C57.6745 3.65486 57.8341 3.4793 57.8341 3.12286V2.29293C57.8341 1.95777 57.6745 1.78221 57.2595 1.78221V1.79285ZM60.792 1.84073C60.5085 1.9636 60.2346 2.10765 59.9727 2.27165V4.18687H59.196V1.20765H59.8504L59.9036 1.53749C60.1571 1.37374 60.4307 1.24322 60.7175 1.14913L60.792 1.84073ZM63.8936 3.19202C63.917 3.3333 63.9072 3.47811 63.8648 3.61491C63.8225 3.75172 63.7488 3.87675 63.6496 3.98007C63.5504 4.08338 63.4285 4.16212 63.2935 4.21003C63.1585 4.25794 63.0143 4.27369 62.8721 4.25603C62.5952 4.25339 62.3192 4.22489 62.0475 4.17091V5.37323L61.2708 5.49027V1.23425H61.8879L61.9624 1.48429C62.2478 1.2797 62.5902 1.1699 62.9413 1.17041C63.5637 1.17041 63.8936 1.52685 63.8936 2.20249V3.19202ZM62.0422 3.52718C62.2679 3.57588 62.4977 3.6026 62.7285 3.60698C63.0105 3.60698 63.1169 3.4793 63.1169 3.20798V2.14397C63.1169 1.89925 63.0211 1.76625 62.7338 1.76625C62.4792 1.77557 62.2353 1.87125 62.0422 2.03757V3.52718ZM43.5072 10.3953H38.7777V7.57041H51.4447V10.3953H46.7099V24.5094H43.5179L43.5072 10.3953Z" fill="white"/>
<path d="M54.3654 22.2218C55.6501 22.2154 56.9266 22.0181 58.1533 21.6366L58.6374 23.9775C57.177 24.5037 55.6358 24.7701 54.0835 24.7648C50.1945 24.7648 48.8432 22.9613 48.8432 19.9768V16.705C48.8432 14.0875 50.0136 11.8744 53.9824 11.8744C57.9511 11.8744 58.8396 14.1886 58.8396 16.8593V19.5193H51.9235V20.1577C51.9501 21.6366 52.4821 22.2218 54.3654 22.2218ZM51.9501 17.0242H55.8923V16.3964C55.8923 15.226 55.5358 14.412 54.009 14.412C52.4821 14.412 51.9501 15.226 51.9501 16.3964V17.0242ZM67.1335 14.7206C65.9909 15.2359 64.8899 15.8388 63.8404 16.5241V24.5041H60.7388V12.1244H63.3563L63.5584 13.497C64.5676 12.8138 65.6623 12.2664 66.8143 11.8691L67.1335 14.7206ZM74.7092 14.7206C73.5703 15.2364 72.4729 15.8393 71.4268 16.5241V24.5041H68.3252V12.1244H70.9426L71.1448 13.497C72.1539 12.8138 73.2486 12.2664 74.4007 11.8691L74.7092 14.7206ZM85.0886 24.5095H82.5456L82.3169 23.6689C81.2197 24.3828 79.9391 24.7635 78.6301 24.7648C76.3691 24.7648 75.4008 23.2114 75.4008 21.078C75.4008 18.5617 76.4968 17.5934 79.0131 17.5934H81.987V16.2953C81.987 14.9228 81.604 14.4386 79.6196 14.4386C78.4659 14.4516 77.3164 14.5799 76.1882 14.8217L75.8052 12.4543C77.1915 12.0707 78.6228 11.8739 80.0612 11.8691C83.9501 11.8691 85.0993 13.2416 85.0993 16.3432L85.0886 24.5095ZM81.987 19.8278H79.6994C78.6833 19.8278 78.4013 20.1098 78.4013 21.0461C78.4013 21.9824 78.6833 22.291 79.6462 22.291C80.4678 22.2785 81.2729 22.0589 81.987 21.6526V19.8278ZM94.6221 9.29948C94.0361 9.17359 93.4392 9.10587 92.8399 9.09732C91.6216 9.09732 91.4407 9.62933 91.4407 10.571V12.1244H94.5955L94.4199 14.5929H91.446V24.5095H88.3445V14.5929H86.3601V12.1244H88.3445V10.3954C88.3445 7.82583 89.5415 6.55435 92.2866 6.55435C93.1854 6.55094 94.0804 6.67088 94.9466 6.91079L94.6221 9.29948ZM100.676 24.7648C96.4203 24.7648 95.2871 22.424 95.2871 19.881V16.7528C95.2871 14.2099 96.4309 11.8691 100.676 11.8691C104.922 11.8691 106.065 14.2099 106.065 16.7528V19.881C106.071 22.424 104.922 24.7648 100.676 24.7648ZM100.676 14.5131C99.0218 14.5131 98.3887 15.2526 98.3887 16.6411V19.9715C98.3887 21.3706 99.0271 22.0995 100.676 22.0995C102.326 22.0995 102.964 21.36 102.964 19.9715V16.6518C102.964 15.2526 102.331 14.5131 100.676 14.5131ZM114.051 14.7206C112.912 15.2364 111.815 15.8393 110.768 16.5241V24.5041H107.667V12.1244H110.284L110.486 13.497C111.496 12.8137 112.59 12.2664 113.742 11.8691L114.051 14.7206ZM122.574 24.5095V15.8644C122.574 15.2047 122.292 14.8749 121.584 14.8749C120.447 15.0099 119.349 15.3717 118.355 15.9389V24.5095H115.253V12.1244H117.621L117.924 13.1884C119.47 12.4065 121.163 11.9571 122.893 11.8691C123.372 11.824 123.853 11.9268 124.271 12.1637C124.69 12.4005 125.026 12.7601 125.234 13.1937C126.781 12.4004 128.481 11.9486 130.218 11.8691C132.277 11.8691 133.017 13.3161 133.017 15.5292V24.5095H129.915V15.8644C129.915 15.2047 129.633 14.8749 128.926 14.8749C127.787 15.0003 126.687 15.3627 125.696 15.9389V24.5095H122.574Z" fill="white"/>
<path d="M19.3649 10.7465V20.8173L28.0898 15.7846V5.70311L19.3649 10.7465Z" fill="white"/>
<path d="M9.68246 5.70311L18.4073 10.7465V20.8173L9.68246 15.7793V5.70311Z" fill="white"/>
<path d="M0 0.0798492V10.156L8.72485 15.1941V5.11792L0 0.0798492ZM9.68246 26.962L18.4073 32V21.9239L9.68246 16.8858V26.962Z" fill="white"/>
</g>
<defs>
<clipPath id="clip0">
<rect width="133.001" height="32" fill="white"/>
</clipPath>
</defs>
</svg>

<svg width="133" height="32" fill="none" xmlns="http://www.w3.org/2000/svg"><g clip-path="url(#a)" fill="#fff"><path d="M41.15 4.182V2.463h-1.596v1.719h-.776V.059h.803v1.729h1.596V.058h.803v4.124h-.83Zm3.724 0h-.638l-.058-.203c-.27.174-.584.27-.905.277-.564 0-.809-.372-.809-.883 0-.607.272-.835.905-.835h.745v-.33c0-.33-.096-.447-.59-.447a4.5 4.5 0 0 0-.857.09l-.107-.564a4.196 4.196 0 0 1 1.064-.138c.974 0 1.261.33 1.261 1.064l-.01 1.969Zm-.76-1.123h-.575c-.255 0-.324.07-.324.293 0 .223.069.298.313.298a1.26 1.26 0 0 0 .586-.155V3.06Zm2.399 1.197a3.789 3.789 0 0 1-1.064-.17l.106-.57c.3.083.61.126.92.128.347 0 .395-.074.395-.298 0-.223-.038-.276-.532-.388-.756-.176-.846-.362-.846-.936 0-.575.26-.878 1.149-.878.313 0 .625.037.93.106l-.074.59a5.67 5.67 0 0 0-.851-.084c-.335 0-.394.074-.394.255 0 .18 0 .255.437.362.867.218.947.33.947.941 0 .612-.187.942-1.123.942Zm3.554-.058v-2.07c0-.16-.07-.24-.25-.24a2.203 2.203 0 0 0-.809.24v2.054h-.777V0l.777.117v1.314c.354-.174.74-.271 1.133-.287.532 0 .703.346.703.878v2.16l-.777.016ZM51.493.803V.06h.776v.728l-.776.016Zm0 3.395v-2.99h.776v2.974l-.776.016Zm1.393-2.948c0-.745.453-1.18 1.506-1.18.387-.001.773.043 1.15.132l-.091.665a6.496 6.496 0 0 0-1.038-.106c-.532 0-.729.18-.729.617v1.548c0 .43.176.617.73.617a6.495 6.495 0 0 0 1.037-.106l.09.665a4.985 4.985 0 0 1-1.149.133c-1.064 0-1.506-.431-1.506-1.181V1.25Zm4.373 3.006c-1.063 0-1.346-.564-1.346-1.17V2.32c0-.612.288-1.17 1.347-1.17 1.058 0 1.346.563 1.346 1.17v.75c.005.611-.282 1.186-1.346 1.186Zm0-2.463c-.415 0-.574.175-.574.532v.798c0 .335.16.532.575.532.415 0 .574-.176.574-.532v-.83c0-.335-.16-.51-.575-.51v.01Zm3.533.048a6.157 6.157 0 0 0-.82.43v1.916h-.776v-2.98h.654l.054.33c.253-.163.527-.294.813-.388l.075.692Zm3.102 1.351a.92.92 0 0 1-1.022 1.064 4.449 4.449 0 0 1-.825-.085v1.202l-.776.117V1.234h.617l.074.25c.286-.204.628-.314.98-.314.622 0 .952.357.952 1.032v.99Zm-1.852.335c.226.049.456.076.686.08.282 0 .389-.128.389-.399V2.144c0-.245-.096-.378-.383-.378-.255.01-.499.105-.692.272v1.49Zm-18.535 6.868h-4.73V7.57h12.668v2.825H46.71V24.51h-3.192l-.01-14.114Z"/><path d="M54.365 22.222a12.973 12.973 0 0 0 3.788-.585l.484 2.34a13.3 13.3 0 0 1-4.553.788c-3.89 0-5.24-1.804-5.24-4.788v-3.272c0-2.617 1.17-4.83 5.138-4.83 3.97 0 4.858 2.314 4.858 4.984v2.66h-6.917v.639c.027 1.479.56 2.064 2.442 2.064Zm-2.415-5.198h3.942v-.628c0-1.17-.356-1.984-1.883-1.984-1.527 0-2.059.814-2.059 1.984v.628Zm15.183-2.303a24.28 24.28 0 0 0-3.293 1.803v7.98H60.74v-12.38h2.617l.202 1.373a13.881 13.881 0 0 1 3.256-1.628l.32 2.852Zm7.576 0a24.287 24.287 0 0 0-3.282 1.803v7.98h-3.102v-12.38h2.618l.202 1.373a13.877 13.877 0 0 1 3.256-1.628l.308 2.852Zm10.38 9.788h-2.543l-.23-.84a6.773 6.773 0 0 1-3.686 1.096c-2.26 0-3.23-1.554-3.23-3.687 0-2.516 1.097-3.485 3.613-3.485h2.974v-1.298c0-1.372-.383-1.856-2.367-1.856a17.304 17.304 0 0 0-3.432.383l-.383-2.368a16.161 16.161 0 0 1 4.256-.585c3.89 0 5.038 1.373 5.038 4.474l-.01 8.166Zm-3.102-4.681h-2.288c-1.016 0-1.298.282-1.298 1.218 0 .936.282 1.245 1.245 1.245a4.884 4.884 0 0 0 2.341-.638v-1.825ZM94.622 9.299a9.103 9.103 0 0 0-1.782-.202c-1.218 0-1.4.532-1.4 1.474v1.553h3.156l-.176 2.469h-2.974v9.916h-3.102v-9.916H86.36v-2.469h1.984v-1.729c0-2.57 1.198-3.84 3.943-3.84a9.826 9.826 0 0 1 2.66.356l-.325 2.388Zm6.054 15.466c-4.256 0-5.389-2.341-5.389-4.884v-3.128c0-2.543 1.144-4.884 5.389-4.884 4.246 0 5.389 2.34 5.389 4.884v3.128c.006 2.543-1.143 4.884-5.389 4.884Zm0-10.252c-1.654 0-2.287.74-2.287 2.128v3.33c0 1.4.638 2.128 2.287 2.128 1.65 0 2.288-.739 2.288-2.128v-3.32c0-1.398-.633-2.138-2.288-2.138Zm13.375.208a24.342 24.342 0 0 0-3.283 1.803v7.98h-3.101v-12.38h2.617l.202 1.373a13.893 13.893 0 0 1 3.256-1.628l.309 2.852Zm8.523 9.788v-8.645c0-.66-.282-.99-.99-.99a8.549 8.549 0 0 0-3.229 1.065v8.57h-3.102V12.124h2.368l.303 1.064a12.408 12.408 0 0 1 4.969-1.319 2.348 2.348 0 0 1 2.341 1.325 12.14 12.14 0 0 1 4.984-1.325c2.059 0 2.799 1.447 2.799 3.66v8.98h-3.102v-8.645c0-.66-.282-.99-.989-.99a8.214 8.214 0 0 0-3.23 1.065v8.57h-3.122ZM19.365 10.746v10.071l8.725-5.032V5.703l-8.725 5.043ZM9.682 5.703l8.725 5.043v10.071L9.682 15.78V5.703ZM0 .08v10.076l8.725 5.038V5.118L0 .08Zm9.682 26.882L18.407 32V21.924l-8.725-5.038v10.076Z"/></g><defs><clipPath id="a"><path fill="#fff" d="M0 0h133.001v32H0z"/></clipPath></defs></svg>
